svg/material-icons/mark_as_unread/materialiconsoutlined/20px.svg

<svg xmlns="http://www.w3.org/2000/svg" width="20" height="20" viewBox="0 0 20 20"><path d="M12.5 5.5h2.42c-.13-.39-.41-.72-.79-.9L8.5 2 2.87 4.6c-.53.24-.87.77-.87 1.36v6.54c0 .83.67 1.5 1.5 1.5V5.96l5-2.31 4 1.85z"/><path d="M16.5 7h-10C5.67 7 5 7.67 5 8.5v7c0 .83.67 1.5 1.5 1.5h10c.83 0 1.5-.67 1.5-1.5v-7c0-.83-.67-1.5-1.5-1.5zm0 8.5h-10v-5.28l5 2.78 5-2.78v5.28zm-5-4.22-5-2.78h10l-5 2.78z"/></svg>

<svg xmlns="http://www.w3.org/2000/svg" enable-background="new 0 0 20 20" height="20" viewBox="0 0 20 20" width="20"><g><g><rect fill="none" height="20" width="20"/></g></g><g><g><path d="M12.5,5.5h2.42c-0.13-0.39-0.41-0.72-0.79-0.9L8.5,2L2.87,4.6C2.34,4.84,2,5.37,2,5.96v6.54C2,13.33,2.67,14,3.5,14V5.96 l5-2.31L12.5,5.5z"/><path d="M16.5,7h-10C5.67,7,5,7.67,5,8.5v7C5,16.33,5.67,17,6.5,17h10c0.83,0,1.5-0.67,1.5-1.5v-7C18,7.67,17.33,7,16.5,7z M16.5,15.5h-10v-5.28l5,2.78l5-2.78V15.5z M11.5,11.28l-5-2.78h10L11.5,11.28z"/></g></g></svg>
